images/types_of_Java_threads.svg

<svg width="1280" height="720" viewBox="0 0 960 540" xmlns="http://www.w3.org/2000/svg" xmlns:xlink="http://www.w3.org/1999/xlink">
    <defs></defs>
    <clipPath id="a">
        <path transform="matrix(1 0 0 -1 0 540)" d="M0 0h960v540H0z"></path>
    </clipPath>
    <g clip-path="url(#a)">
        <path d="M0 0h960v540H0z" fill="#fff"></path>
        <path d="M129.792 316.456h36.715v88.102h-36.715zm0 0" fill="#32738c" data-name="P"></path>
        <path d="M 97.862 242.895 L 111.868 242.895 L 111.868 260.899 L 97.862 260.899 L 97.862 242.895 Z M 115.786 242.895 L 129.792 242.895 L 129.792 260.899 L 115.786 260.899 L 115.786 242.895 Z M 133.546 242.895 L 147.552 242.895 L 147.552 260.899 L 133.546 260.899 L 133.546 242.895 Z M 151.459 242.895 L 165.465 242.895 L 165.465 260.899 L 151.459 260.899 L 151.459 242.895 Z M 169.219 242.895 L 183.225 242.895 L 183.225 260.899 L 169.219 260.899 L 169.219 242.895 Z M 187.143 242.895 L 201.149 242.895 L 201.149 260.899 L 187.143 260.899 L 187.143 242.895 Z M 204.903 242.895 L 218.909 242.895 L 218.909 260.899 L 204.903 260.899 L 204.903 242.895 Z M 80.102 268.159 L 94.108 268.159 L 94.108 286.162 L 80.102 286.162 L 80.102 268.159 Z M 97.862 268.159 L 111.868 268.159 L 111.868 286.162 L 97.862 286.162 L 97.862 268.159 Z M 115.786 268.159 L 129.792 268.159 L 129.792 286.162 L 115.786 286.162 L 115.786 268.159 Z M 133.546 268.159 L 147.552 268.159 L 147.552 286.162 L 133.546 286.162 L 133.546 268.159 Z M 151.459 268.159 L 165.465 268.159 L 165.465 286.162 L 151.459 286.162 L 151.459 268.159 Z M 169.219 268.159 L 183.225 268.159 L 183.225 286.162 L 169.219 286.162 L 169.219 268.159 Z M 187.143 268.159 L 201.149 268.159 L 201.149 286.162 L 187.143 286.162 L 187.143 268.159 Z M 204.903 268.159 L 218.909 268.159 L 218.909 286.162 L 204.903 286.162 L 204.903 268.159 Z M 204.903 268.159 M 80.102 242.895 L 94.108 242.895 L 94.108 260.899 L 80.102 260.899 L 80.102 242.895 Z M 80.102 242.895" fill="#00b050" data-name="P"></path>
        <path d="M341.204 256.395h14.006v18.004h-14.006zM387.464 256.395h14.006v18.004h-14.006zM433.461 256.299h14.005v18.003h-14.005zM479.362 257.657h14.005v18.004h-14.005zm0 0" fill="#4e5051" data-name="P"></path>
        <path d="M330.704 316.456h36.715v88.102h-36.715zM376.353 316.456h36.714v88.102h-36.714zM422.359 316.456h36.715v88.102h-36.715zM468.007 316.456h36.715v88.102h-36.715zM653.076 316.456h36.715v88.102h-36.715zM698.724 316.456h36.715v88.102h-36.715zM744.053 316.456h36.715v88.102h-36.715zM789.701 316.456h36.715v88.102h-36.715zm0 0" fill="#32738c" data-name="P"></path>
        <g data-name="P">
            <symbol id="A">
                <path d="M.348.338v.038h.226V.044A.667.667 0 0 0 .341 0C.114 0 0 .127 0 .381c0 .117.03.208.091.272.06.064.147.096.259.096a.456.456 0 0 0 .097-.01.283.283 0 0 0 .081-.028V.658a.45.45 0 0 1-.177.038C.256.696.184.669.135.615.085.561.061.483.061.381c0-.219.094-.328.281-.328.059 0 .117.009.175.026v.237L.348.338z"></path>
            </symbol>
            <symbol id="B">
                <path d="M0 0v.518h.043L.055.423c.014.03.034.054.061.072a.154.154 0 0 0 .118.024v-.05H.21A.133.133 0 0 1 .113.428.208.208 0 0 1 .058.315V0H0z"></path>
            </symbol>
            <symbol id="C">
                <path d="M.411.04A.225.225 0 0 0 .336.01.465.465 0 0 0 .239 0C.079 0 0 .091 0 .274c0 .085.02.15.058.196.04.045.096.068.169.068.14 0 .209-.081.209-.243v-.04H.059C.062.185.078.135.108.101c.03-.033.076-.05.136-.05.055 0 .111.013.167.04V.04M.227.488A.155.155 0 0 1 .105.44.216.216 0 0 1 .059.302H.38v.014C.38.431.329.488.227.488z"></path>
            </symbol>
            <symbol id="D">
                <path d="M0 0v.518h.043L.056.423a.224.224 0 0 0 .191.105C.307.528.353.51.385.475.417.44.433.388.433.321V0H.375v.319c0 .105-.046.158-.138.158A.178.178 0 0 1 .131.441.214.214 0 0 1 .058.342V0H0z"></path>
            </symbol>
            <use transform="matrix(28, 0, 0, -28, 112.24299956092227, 195.70100986066473)" fill="#4e5051" xlink:href="#A"></use>
            <use transform="matrix(28, 0, 0, -28, 132.1230050362051, 195.3930111942591)" fill="#4e5051" xlink:href="#B"></use>
            <use transform="matrix(28, 0, 0, -28, 140.43899954673634, 195.67300998190058)" fill="#4e5051" xlink:href="#C"></use>
            <use transform="matrix(28, 0, 0, -28, 155.44701085826773, 195.67300998190058)" fill="#4e5051" xlink:href="#C"></use>
            <use transform="matrix(28, 0, 0, -28, 171.09900412258503, 195.3930111942591)" fill="#4e5051" xlink:href="#D"></use>
        </g>
        <path d="M 746.612 245.02 L 760.6179999999999 245.02 L 760.6179999999999 263.023 L 746.612 263.023 L 746.612 245.02 Z M 764.372 245.02 L 778.3779999999999 245.02 L 778.3779999999999 263.023 L 764.372 263.023 L 764.372 245.02 Z M 782.296 245.02 L 796.302 245.02 L 796.302 263.023 L 782.296 263.023 L 782.296 245.02 Z M 800.056 245.02 L 814.062 245.02 L 814.062 263.023 L 800.056 263.023 L 800.056 245.02 Z M 817.969 245.02 L 831.975 245.02 L 831.975 263.023 L 817.969 263.023 L 817.969 245.02 Z M 835.729 245.02 L 849.735 245.02 L 849.735 263.023 L 835.729 263.023 L 835.729 245.02 Z M 853.653 245.02 L 867.659 245.02 L 867.659 263.023 L 853.653 263.023 L 853.653 245.02 Z M 871.413 245.02 L 885.419 245.02 L 885.419 263.023 L 871.413 263.023 L 871.413 245.02 Z M 746.612 270.283 L 760.6179999999999 270.283 L 760.6179999999999 288.28700000000003 L 746.612 288.28700000000003 L 746.612 270.283 Z M 764.372 270.283 L 778.3779999999999 270.283 L 778.3779999999999 288.28700000000003 L 764.372 288.28700000000003 L 764.372 270.283 Z M 782.296 270.283 L 796.302 270.283 L 796.302 288.28700000000003 L 782.296 288.28700000000003 L 782.296 270.283 Z M 800.056 270.283 L 814.062 270.283 L 814.062 288.28700000000003 L 800.056 288.28700000000003 L 800.056 270.283 Z M 817.969 270.283 L 831.975 270.283 L 831.975 288.28700000000003 L 817.969 288.28700000000003 L 817.969 270.283 Z M 835.729 270.283 L 849.735 270.283 L 849.735 288.28700000000003 L 835.729 288.28700000000003 L 835.729 270.283 Z M 853.653 270.283 L 867.659 270.283 L 867.659 288.28700000000003 L 853.653 288.28700000000003 L 853.653 270.283 Z M 871.413 270.283 L 885.419 270.283 L 885.419 288.28700000000003 L 871.413 288.28700000000003 L 871.413 270.283 Z M 871.413 270.283 M 602.225 244.632 L 616.231 244.632 L 616.231 262.636 L 602.225 262.636 L 602.225 244.632 Z M 619.985 244.632 L 633.991 244.632 L 633.991 262.636 L 619.985 262.636 L 619.985 244.632 Z M 640.232 244.632 L 654.2379999999999 244.632 L 654.2379999999999 262.636 L 640.232 262.636 L 640.232 244.632 Z M 657.992 244.632 L 671.9979999999999 244.632 L 671.9979999999999 262.636 L 657.992 262.636 L 657.992 244.632 Z M 675.905 244.632 L 689.911 244.632 L 689.911 262.636 L 675.905 262.636 L 675.905 244.632 Z M 693.665 244.632 L 707.6709999999999 244.632 L 707.6709999999999 262.636 L 693.665 262.636 L 693.665 244.632 Z M 711.589 244.632 L 725.595 244.632 L 725.595 262.636 L 711.589 262.636 L 711.589 244.632 Z M 729.349 244.632 L 743.355 244.632 L 743.355 262.636 L 729.349 262.636 L 729.349 244.632 Z M 602.225 269.895 L 616.231 269.895 L 616.231 287.899 L 602.225 287.899 L 602.225 269.895 Z M 619.985 269.895 L 633.991 269.895 L 633.991 287.899 L 619.985 287.899 L 619.985 269.895 Z M 640.232 269.895 L 654.2379999999999 269.895 L 654.2379999999999 287.899 L 640.232 287.899 L 640.232 269.895 Z M 657.992 269.895 L 671.9979999999999 269.895 L 671.9979999999999 287.899 L 657.992 287.899 L 657.992 269.895 Z M 675.905 269.895 L 689.911 269.895 L 689.911 287.899 L 675.905 287.899 L 675.905 269.895 Z M 693.665 269.895 L 707.6709999999999 269.895 L 707.6709999999999 287.899 L 693.665 287.899 L 693.665 269.895 Z M 711.589 269.895 L 725.595 269.895 L 725.595 287.899 L 711.589 287.899 L 711.589 269.895 Z M 729.349 269.895 L 743.355 269.895 L 743.355 287.899 L 729.349 287.899 L 729.349 269.895 Z M 729.349 269.895" fill="#e59539" data-name="P"></path>
        <g data-name="P">
            <symbol id="E">
                <path d="M0 0v.727h.225C.389.727.471.652.471.503.471.353.389.279.225.279H.06V0H0m.216.675H.06V.331h.156c.067 0 .117.014.148.041C.395.4.411.444.411.503c0 .06-.016.103-.047.13C.333.661.284.675.216.675z"></path>
            </symbol>
            <symbol id="F">
                <path d="M.05 0v.701L0 .728v.023h.108V0H.05z"></path>
            </symbol>
            <symbol id="G">
                <path d="M.36.01.348.101A.227.227 0 0 0 .269.027.201.201 0 0 0 .169 0a.174.174 0 0 0-.124.043A.156.156 0 0 0 0 .16c0 .053.018.093.055.122.037.03.088.044.153.044h.136V.37c0 .042-.01.072-.029.09C.295.479.263.488.218.488A.463.463 0 0 1 .046.451v.05A.421.421 0 0 0 .22.538C.282.538.328.524.357.496.387.468.402.426.402.368V.01H.36M.173.05c.035 0 .069.012.101.035a.217.217 0 0 1 .072.09V.28H.213C.11.28.058.241.058.163c0-.036.01-.064.03-.084C.108.059.136.05.173.05z"></path>
            </symbol>
            <symbol id="H">
                <path d="M.088.138v.336H0v.031l.088.019.019.139h.039V.522h.113V.474H.146V.138c0-.031.006-.054.019-.067.013-.013.034-.02.063-.02h.019a.74.74 0 0 0 .018.002V.005A.205.205 0 0 0 .216 0C.171 0 .139.01.118.032c-.02.022-.03.057-.03.106z"></path>
            </symbol>
            <symbol id="I">
                <path d="M.088 0v.47H0v.031L.087.52v.077c0 .107.05.16.151.16.01 0 .019-.001.029-.003v-.05a.121.121 0 0 1-.015.001.067.067 0 0 1-.011.001C.177.706.145.67.145.597V.518h.126V.47H.146V0H.088z"></path>
            </symbol>
            <symbol id="J">
                <path d="M.238 0a.223.223 0 0 0-.175.07A.288.288 0 0 0 0 .268a.29.29 0 0 0 .063.199c.042.047.1.071.175.071A.222.222 0 0 0 .413.467.29.29 0 0 0 .476.268.288.288 0 0 0 .413.07.222.222 0 0 0 .238 0m0 .05C.296.05.34.069.371.106a.25.25 0 0 1 .046.162C.417.339.401.394.37.431a.16.16 0 0 1-.132.057.163.163 0 0 1-.133-.057C.075.394.059.339.059.268A.25.25 0 0 1 .105.106C.135.069.18.05.238.05z"></path>
            </symbol>
            <symbol id="K">
                <path d="M0 0v.518h.043L.055.429A.21.21 0 0 0 .127.5c.03.019.063.028.098.028.079 0 .13-.035.156-.106a.196.196 0 0 0 .077.076c.034.02.07.03.107.03C.62.528.663.51.692.475.722.44.736.388.736.321V0H.678v.32c0 .105-.041.157-.123.157A.15.15 0 0 1 .458.443.192.192 0 0 1 .397.35V0H.339v.32c0 .105-.041.157-.124.157A.142.142 0 0 1 .12.44.21.21 0 0 1 .058.342V0H0z"></path>
            </symbol>
            <use transform="matrix(28, 0, 0, -28, 357.37702481082124, 195.3930111942591)" fill="#4e5051" xlink:href="#E"></use>
            <use transform="matrix(28, 0, 0, -28, 372.3290211060348, 195.3930111942591)" fill="#4e5051" xlink:href="#F"></use>
            <use transform="matrix(28, 0, 0, -28, 378.68500884428613, 195.67300998190058)" fill="#4e5051" xlink:href="#G"></use>
            <use transform="matrix(28, 0, 0, -28, 392.20902658131763, 195.50501070931568)" fill="#4e5051" xlink:href="#H"></use>
            <use transform="matrix(28, 0, 0, -28, 401.14100316587064, 195.3930111942591)" fill="#4e5051" xlink:href="#I"></use>
            <use transform="matrix(28, 0, 0, -28, 410.21302492061295, 195.67300998190058)" fill="#4e5051" xlink:href="#J"></use>
            <use transform="matrix(28, 0, 0, -28, 427.040997834235, 195.3930111942591)" fill="#4e5051" xlink:href="#B"></use>
            <use transform="matrix(28, 0, 0, -28, 436.84101643684517, 195.3930111942591)" fill="#4e5051" xlink:href="#K"></use>
        </g>
        <g data-name="P">
            <symbol id="L">
                <path d="M.275 0 0 .727h.065L.307.072l.242.655h.064L.337 0H.275z"></path>
            </symbol>
            <symbol id="M">
                <path d="M.026.656v.061h.081V.656H.026M.05 0v.466L0 .493v.025h.108V0H.05z"></path>
            </symbol>
            <symbol id="N">
                <path d="M0 .207v.321h.058V.209c0-.105.045-.158.134-.158.037 0 .072.012.103.036a.227.227 0 0 1 .071.099v.342h.058V.01H.381L.368.104A.21.21 0 0 0 .182 0C.123 0 .078.018.047.053A.227.227 0 0 0 0 .207z"></path>
            </symbol>
            <use transform="matrix(28, 0, 0, -28, 704.9220180786251, 195.3930111942591)" fill="#4e5051" xlink:href="#L"></use>
            <use transform="matrix(28, 0, 0, -28, 723.4300142356751, 195.3930111942591)" fill="#4e5051" xlink:href="#M"></use>
            <use transform="matrix(28, 0, 0, -28, 730.8780125045178, 195.3930111942591)" fill="#4e5051" xlink:href="#B"></use>
            <use transform="matrix(28, 0, 0, -28, 739.5020361990337, 195.50501070931568)" fill="#4e5051" xlink:href="#H"></use>
            <use transform="matrix(28, 0, 0, -28, 749.8340067217941, 195.67300998190058)" fill="#4e5051" xlink:href="#N"></use>
            <use transform="matrix(28, 0, 0, -28, 765.0380477022536, 195.67300998190058)" fill="#4e5051" xlink:href="#G"></use>
            <use transform="matrix(28, 0, 0, -28, 779.1780017369383, 195.3930111942591)" fill="#4e5051" xlink:href="#F"></use>
        </g>
    </g>
</svg>

<svg width="1280" height="720" viewBox="0 0 960 540" xmlns="http://www.w3.org/2000/svg" xmlns:xlink="http://www.w3.org/1999/xlink">
    <defs></defs>
    <clipPath id="a">
        <path transform="matrix(1 0 0 -1 0 540)" d="M0 0h960v540H0z"></path>
    </clipPath>
    <g clip-path="url(#a)">
        <path d="M0 0h960v540H0z" fill="#fff"></path>
        <path d="M129.792 316.456h36.715v88.102h-36.715zm0 0" fill="#32738c" data-name="P"></path>
        <path d="M 97.862 242.895 L 111.868 242.895 L 111.868 260.899 L 97.862 260.899 L 97.862 242.895 Z M 115.786 242.895 L 129.792 242.895 L 129.792 260.899 L 115.786 260.899 L 115.786 242.895 Z M 133.546 242.895 L 147.552 242.895 L 147.552 260.899 L 133.546 260.899 L 133.546 242.895 Z M 151.459 242.895 L 165.465 242.895 L 165.465 260.899 L 151.459 260.899 L 151.459 242.895 Z M 169.219 242.895 L 183.225 242.895 L 183.225 260.899 L 169.219 260.899 L 169.219 242.895 Z M 187.143 242.895 L 201.149 242.895 L 201.149 260.899 L 187.143 260.899 L 187.143 242.895 Z M 204.903 242.895 L 218.909 242.895 L 218.909 260.899 L 204.903 260.899 L 204.903 242.895 Z M 80.102 268.159 L 94.108 268.159 L 94.108 286.162 L 80.102 286.162 L 80.102 268.159 Z M 97.862 268.159 L 111.868 268.159 L 111.868 286.162 L 97.862 286.162 L 97.862 268.159 Z M 115.786 268.159 L 129.792 268.159 L 129.792 286.162 L 115.786 286.162 L 115.786 268.159 Z M 133.546 268.159 L 147.552 268.159 L 147.552 286.162 L 133.546 286.162 L 133.546 268.159 Z M 151.459 268.159 L 165.465 268.159 L 165.465 286.162 L 151.459 286.162 L 151.459 268.159 Z M 169.219 268.159 L 183.225 268.159 L 183.225 286.162 L 169.219 286.162 L 169.219 268.159 Z M 187.143 268.159 L 201.149 268.159 L 201.149 286.162 L 187.143 286.162 L 187.143 268.159 Z M 204.903 268.159 L 218.909 268.159 L 218.909 286.162 L 204.903 286.162 L 204.903 268.159 Z M 204.903 268.159 M 80.102 242.895 L 94.108 242.895 L 94.108 260.899 L 80.102 260.899 L 80.102 242.895 Z M 80.102 242.895" fill="#00b050" data-name="P"></path>
        <path d="M341.204 256.395h14.006v18.004h-14.006zM387.464 256.395h14.006v18.004h-14.006zM433.461 256.299h14.005v18.003h-14.005zM479.362 257.657h14.005v18.004h-14.005zm0 0" fill="#4e5051" data-name="P"></path>
        <path d="M330.704 316.456h36.715v88.102h-36.715zM376.353 316.456h36.714v88.102h-36.714zM422.359 316.456h36.715v88.102h-36.715zM468.007 316.456h36.715v88.102h-36.715zM653.076 316.456h36.715v88.102h-36.715zM698.724 316.456h36.715v88.102h-36.715zM744.053 316.456h36.715v88.102h-36.715zM789.701 316.456h36.715v88.102h-36.715zm0 0" fill="#32738c" data-name="P"></path>
        <path d="M602.225 244.632h14.006v18.004h-14.006zM619.985 244.632h14.006v18.004h-14.006zM640.232 244.632h14.006v18.004h-14.006zM657.992 244.632h14.006v18.004h-14.006zM675.905 244.632h14.006v18.004h-14.006zM693.665 244.632h14.006v18.004h-14.006zM711.589 244.632h14.006v18.004h-14.006zM729.349 244.632h14.006v18.004h-14.006zM602.225 269.895h14.006v18.004h-14.006zM619.985 269.895h14.006v18.004h-14.006zM640.232 269.895h14.006v18.004h-14.006zM657.992 269.895h14.006v18.004h-14.006zM675.905 269.895h14.006v18.004h-14.006zM693.665 269.895h14.006v18.004h-14.006zM711.589 269.895h14.006v18.004h-14.006zM729.349 269.895h14.006v18.004h-14.006zm0 0" fill="#e59539" data-name="P"></path>
        <g data-name="P">
            <symbol id="A">
                <path d="M.348.338v.038h.226V.044A.667.667 0 0 0 .341 0C.114 0 0 .127 0 .381c0 .117.03.208.091.272.06.064.147.096.259.096a.456.456 0 0 0 .097-.01.283.283 0 0 0 .081-.028V.658a.45.45 0 0 1-.177.038C.256.696.184.669.135.615.085.561.061.483.061.381c0-.219.094-.328.281-.328.059 0 .117.009.175.026v.237L.348.338z"></path>
            </symbol>
            <symbol id="B">
                <path d="M0 0v.518h.043L.055.423c.014.03.034.054.061.072a.154.154 0 0 0 .118.024v-.05H.21A.133.133 0 0 1 .113.428.208.208 0 0 1 .058.315V0H0z"></path>
            </symbol>
            <symbol id="C">
                <path d="M.411.04A.225.225 0 0 0 .336.01.465.465 0 0 0 .239 0C.079 0 0 .091 0 .274c0 .085.02.15.058.196.04.045.096.068.169.068.14 0 .209-.081.209-.243v-.04H.059C.062.185.078.135.108.101c.03-.033.076-.05.136-.05.055 0 .111.013.167.04V.04M.227.488A.155.155 0 0 1 .105.44.216.216 0 0 1 .059.302H.38v.014C.38.431.329.488.227.488z"></path>
            </symbol>
            <symbol id="D">
                <path d="M0 0v.518h.043L.056.423a.224.224 0 0 0 .191.105C.307.528.353.51.385.475.417.44.433.388.433.321V0H.375v.319c0 .105-.046.158-.138.158A.178.178 0 0 1 .131.441.214.214 0 0 1 .058.342V0H0z"></path>
            </symbol>
            <use transform="matrix(28, 0, 0, -28, 112.24299956092227, 195.70100986066473)" fill="#4e5051" xlink:href="#A"></use>
            <use transform="matrix(28, 0, 0, -28, 132.1230050362051, 195.3930111942591)" fill="#4e5051" xlink:href="#B"></use>
            <use transform="matrix(28, 0, 0, -28, 140.43899954673634, 195.67300998190058)" fill="#4e5051" xlink:href="#C"></use>
            <use transform="matrix(28, 0, 0, -28, 155.44701085826773, 195.67300998190058)" fill="#4e5051" xlink:href="#C"></use>
            <use transform="matrix(28, 0, 0, -28, 171.09900412258503, 195.3930111942591)" fill="#4e5051" xlink:href="#D"></use>
        </g>
        <path d="M746.612 245.02h14.006v18.003h-14.006zM764.372 245.02h14.006v18.003h-14.006zM782.296 245.02h14.006v18.003h-14.006zM800.056 245.02h14.006v18.003h-14.006zM817.969 245.02h14.006v18.003h-14.006zM835.729 245.02h14.006v18.003h-14.006zM853.653 245.02h14.006v18.003h-14.006zM871.413 245.02h14.006v18.003h-14.006zM746.612 270.283h14.006v18.004h-14.006zM764.372 270.283h14.006v18.004h-14.006zM782.296 270.283h14.006v18.004h-14.006zM800.056 270.283h14.006v18.004h-14.006zM817.969 270.283h14.006v18.004h-14.006zM835.729 270.283h14.006v18.004h-14.006zM853.653 270.283h14.006v18.004h-14.006zM871.413 270.283h14.006v18.004h-14.006zm0 0" fill="#e59539" data-name="P"></path>
        <g data-name="P">
            <symbol id="E">
                <path d="M0 0v.727h.225C.389.727.471.652.471.503.471.353.389.279.225.279H.06V0H0m.216.675H.06V.331h.156c.067 0 .117.014.148.041C.395.4.411.444.411.503c0 .06-.016.103-.047.13C.333.661.284.675.216.675z"></path>
            </symbol>
            <symbol id="F">
                <path d="M.05 0v.701L0 .728v.023h.108V0H.05z"></path>
            </symbol>
            <symbol id="G">
                <path d="M.36.01.348.101A.227.227 0 0 0 .269.027.201.201 0 0 0 .169 0a.174.174 0 0 0-.124.043A.156.156 0 0 0 0 .16c0 .053.018.093.055.122.037.03.088.044.153.044h.136V.37c0 .042-.01.072-.029.09C.295.479.263.488.218.488A.463.463 0 0 1 .046.451v.05A.421.421 0 0 0 .22.538C.282.538.328.524.357.496.387.468.402.426.402.368V.01H.36M.173.05c.035 0 .069.012.101.035a.217.217 0 0 1 .072.09V.28H.213C.11.28.058.241.058.163c0-.036.01-.064.03-.084C.108.059.136.05.173.05z"></path>
            </symbol>
            <symbol id="H">
                <path d="M.088.138v.336H0v.031l.088.019.019.139h.039V.522h.113V.474H.146V.138c0-.031.006-.054.019-.067.013-.013.034-.02.063-.02h.019a.74.74 0 0 0 .018.002V.005A.205.205 0 0 0 .216 0C.171 0 .139.01.118.032c-.02.022-.03.057-.03.106z"></path>
            </symbol>
            <symbol id="I">
                <path d="M.088 0v.47H0v.031L.087.52v.077c0 .107.05.16.151.16.01 0 .019-.001.029-.003v-.05a.121.121 0 0 1-.015.001.067.067 0 0 1-.011.001C.177.706.145.67.145.597V.518h.126V.47H.146V0H.088z"></path>
            </symbol>
            <symbol id="J">
                <path d="M.238 0a.223.223 0 0 0-.175.07A.288.288 0 0 0 0 .268a.29.29 0 0 0 .063.199c.042.047.1.071.175.071A.222.222 0 0 0 .413.467.29.29 0 0 0 .476.268.288.288 0 0 0 .413.07.222.222 0 0 0 .238 0m0 .05C.296.05.34.069.371.106a.25.25 0 0 1 .046.162C.417.339.401.394.37.431a.16.16 0 0 1-.132.057.163.163 0 0 1-.133-.057C.075.394.059.339.059.268A.25.25 0 0 1 .105.106C.135.069.18.05.238.05z"></path>
            </symbol>
            <symbol id="K">
                <path d="M0 0v.518h.043L.055.429A.21.21 0 0 0 .127.5c.03.019.063.028.098.028.079 0 .13-.035.156-.106a.196.196 0 0 0 .077.076c.034.02.07.03.107.03C.62.528.663.51.692.475.722.44.736.388.736.321V0H.678v.32c0 .105-.041.157-.123.157A.15.15 0 0 1 .458.443.192.192 0 0 1 .397.35V0H.339v.32c0 .105-.041.157-.124.157A.142.142 0 0 1 .12.44.21.21 0 0 1 .058.342V0H0z"></path>
            </symbol>
            <use transform="matrix(28, 0, 0, -28, 357.37702481082124, 195.3930111942591)" fill="#4e5051" xlink:href="#E"></use>
            <use transform="matrix(28, 0, 0, -28, 372.3290211060348, 195.3930111942591)" fill="#4e5051" xlink:href="#F"></use>
            <use transform="matrix(28, 0, 0, -28, 378.68500884428613, 195.67300998190058)" fill="#4e5051" xlink:href="#G"></use>
            <use transform="matrix(28, 0, 0, -28, 392.20902658131763, 195.50501070931568)" fill="#4e5051" xlink:href="#H"></use>
            <use transform="matrix(28, 0, 0, -28, 401.14100316587064, 195.3930111942591)" fill="#4e5051" xlink:href="#I"></use>
            <use transform="matrix(28, 0, 0, -28, 410.21302492061295, 195.67300998190058)" fill="#4e5051" xlink:href="#J"></use>
            <use transform="matrix(28, 0, 0, -28, 427.040997834235, 195.3930111942591)" fill="#4e5051" xlink:href="#B"></use>
            <use transform="matrix(28, 0, 0, -28, 436.84101643684517, 195.3930111942591)" fill="#4e5051" xlink:href="#K"></use>
        </g>
        <g data-name="P">
            <symbol id="L">
                <path d="M.275 0 0 .727h.065L.307.072l.242.655h.064L.337 0H.275z"></path>
            </symbol>
            <symbol id="M">
                <path d="M.026.656v.061h.081V.656H.026M.05 0v.466L0 .493v.025h.108V0H.05z"></path>
            </symbol>
            <symbol id="N">
                <path d="M0 .207v.321h.058V.209c0-.105.045-.158.134-.158.037 0 .072.012.103.036a.227.227 0 0 1 .071.099v.342h.058V.01H.381L.368.104A.21.21 0 0 0 .182 0C.123 0 .078.018.047.053A.227.227 0 0 0 0 .207z"></path>
            </symbol>
            <use transform="matrix(28, 0, 0, -28, 704.9220180786251, 195.3930111942591)" fill="#4e5051" xlink:href="#L"></use>
            <use transform="matrix(28, 0, 0, -28, 723.4300142356751, 195.3930111942591)" fill="#4e5051" xlink:href="#M"></use>
            <use transform="matrix(28, 0, 0, -28, 730.8780125045178, 195.3930111942591)" fill="#4e5051" xlink:href="#B"></use>
            <use transform="matrix(28, 0, 0, -28, 739.5020361990337, 195.50501070931568)" fill="#4e5051" xlink:href="#H"></use>
            <use transform="matrix(28, 0, 0, -28, 749.8340067217941, 195.67300998190058)" fill="#4e5051" xlink:href="#N"></use>
            <use transform="matrix(28, 0, 0, -28, 765.0380477022536, 195.67300998190058)" fill="#4e5051" xlink:href="#G"></use>
            <use transform="matrix(28, 0, 0, -28, 779.1780017369383, 195.3930111942591)" fill="#4e5051" xlink:href="#F"></use>
        </g>
    </g>
</svg>
